DVA
CUT[Es fliegen zwei Tauben wohl ueber den Rhein,:
    sie kommen den ganzen Sommer nicht heim.]
REG[Europa, Mitteleuropa, Lothringen, Weiler]
KEY[D0032  08  G 3/4]
MEL[-5_  1_.23_  2_2_-5_  -6_-7_-6_  -5__
    -5_  1_2_3_  2_2_5_  4#_.56_  5__
    5_  1_2_3_  4_3_2_  1_3_2_  1__ //] >>
FCT[Liebes - Lied]
CMT[Achttonskala ( Ionisch, modulierend in die Dominanttonart )]
